apps/16/system-file-manager.svg

<?xml version="1.0" encoding="UTF-8" standalone="no"?>
<!-- Created with Inkscape (http://www.inkscape.org/) -->
<svg
   xmlns:dc="http://purl.org/dc/elements/1.1/"
   xmlns:cc="http://creativecommons.org/ns#"
   xmlns:rdf="http://www.w3.org/1999/02/22-rdf-syntax-ns#"
   xmlns:svg="http://www.w3.org/2000/svg"
   xmlns="http://www.w3.org/2000/svg"
   xmlns:xlink="http://www.w3.org/1999/xlink"
   xmlns:sodipodi="http://sodipodi.sourceforge.net/DTD/sodipodi-0.dtd"
   xmlns:inkscape="http://www.inkscape.org/namespaces/inkscape"
   width="16px"
   height="16px"
   id="svg2555"
   sodipodi:version="0.32"
   inkscape:version="0.46"
   sodipodi:docname="system-file-manager.svg"
   inkscape:output_extension="org.inkscape.output.svg.inkscape">
  <defs
     id="defs2557">
    <radialGradient
       inkscape:collect="always"
       xlink:href="#linearGradient5060"
       id="radialGradient3713"
       gradientUnits="userSpaceOnUse"
       gradientTransform="matrix(-2.774389,0,0,1.969706,112.7623,-872.8854)"
       cx="605.71429"
       cy="486.64789"
       fx="605.71429"
       fy="486.64789"
       r="117.14286" />
    <linearGradient
       inkscape:collect="always"
       id="linearGradient5060">
      <stop
         style="stop-color:black;stop-opacity:1;"
         offset="0"
         id="stop5062" />
      <stop
         style="stop-color:black;stop-opacity:0;"
         offset="1"
         id="stop5064" />
    </linearGradient>
    <radialGradient
       inkscape:collect="always"
       xlink:href="#linearGradient5060"
       id="radialGradient3711"
       gradientUnits="userSpaceOnUse"
       gradientTransform="matrix(2.774389,0,0,1.969706,-1891.633,-872.8854)"
       cx="605.71429"
       cy="486.64789"
       fx="605.71429"
       fy="486.64789"
       r="117.14286" />
    <linearGradient
       id="linearGradient5048">
      <stop
         style="stop-color:black;stop-opacity:0;"
         offset="0"
         id="stop5050" />
      <stop
         id="stop5056"
         offset="0.5"
         style="stop-color:black;stop-opacity:1;" />
      <stop
         style="stop-color:black;stop-opacity:0;"
         offset="1"
         id="stop5052" />
    </linearGradient>
    <linearGradient
       inkscape:collect="always"
       xlink:href="#linearGradient5048"
       id="linearGradient3709"
       gradientUnits="userSpaceOnUse"
       gradientTransform="matrix(2.774389,0,0,1.969706,-1892.179,-872.8854)"
       x1="302.85715"
       y1="366.64789"
       x2="302.85715"
       y2="609.50507" />
    <linearGradient
       id="linearGradient10897">
      <stop
         style="stop-color:#7aa8c6;stop-opacity:1;"
         offset="0"
         id="stop10899" />
      <stop
         style="stop-color:#40759c;stop-opacity:1;"
         offset="1"
         id="stop10901" />
    </linearGradient>
    <linearGradient
       inkscape:collect="always"
       xlink:href="#linearGradient10897"
       id="linearGradient4751"
       gradientUnits="userSpaceOnUse"
       gradientTransform="matrix(1.0083043,0,0,1.0006232,-10.500284,-26.477671)"
       x1="3.5136399"
       y1="4"
       x2="3.5136399"
       y2="15.035971" />
    <linearGradient
       id="linearGradient10889">
      <stop
         id="stop10891"
         offset="0"
         style="stop-color:#b0cbdd;stop-opacity:1;" />
      <stop
         id="stop10893"
         offset="1"
         style="stop-color:#4d89b6;stop-opacity:1;" />
    </linearGradient>
    <linearGradient
       inkscape:collect="always"
       xlink:href="#linearGradient10889"
       id="linearGradient4749"
       gradientUnits="userSpaceOnUse"
       gradientTransform="matrix(5.4893416e-2,1.3851317e-2,2.572632e-3,5.248166e-2,-11.212261,-26.738461)"
       x1="126.69791"
       y1="58.583481"
       x2="169.22964"
       y2="238.3999" />
    <linearGradient
       id="linearGradient4845">
      <stop
         style="stop-color:#ffffff;stop-opacity:1;"
         offset="0"
         id="stop4847" />
      <stop
         style="stop-color:#b6b6b6;stop-opacity:1;"
         offset="1"
         id="stop4849" />
    </linearGradient>
    <radialGradient
       inkscape:collect="always"
       xlink:href="#linearGradient4845"
       id="radialGradient2553"
       gradientUnits="userSpaceOnUse"
       gradientTransform="matrix(-1.0729189,0,1.1916354e-8,1.0495351,28.171072,-19.900862)"
       cx="17.81411"
       cy="24.149399"
       fx="17.81411"
       fy="24.149399"
       r="9.125" />
  </defs>
  <sodipodi:namedview
     id="base"
     pagecolor="#ffffff"
     bordercolor="#666666"
     borderopacity="1.0"
     inkscape:pageopacity="0.0"
     inkscape:pageshadow="2"
     inkscape:zoom="22.197802"
     inkscape:cx="8"
     inkscape:cy="8"
     inkscape:current-layer="layer1"
     showgrid="true"
     inkscape:grid-bbox="true"
     inkscape:document-units="px"
     inkscape:window-width="640"
     inkscape:window-height="679"
     inkscape:window-x="798"
     inkscape:window-y="134" />
  <metadata
     id="metadata2560">
    <rdf:RDF>
      <cc:Work
         rdf:about="">
        <dc:format>image/svg+xml</dc:format>
        <dc:type
           rdf:resource="http://purl.org/dc/dcmitype/StillImage" />
      </cc:Work>
    </rdf:RDF>
  </metadata>
  <g
     id="layer1"
     inkscape:label="Layer 1"
     inkscape:groupmode="layer">
    <g
       transform="matrix(0.3639508,0,0,0.3445682,-0.6438199,-0.3854516)"
       id="layer6"
       inkscape:label="Shadow">
      <g
         transform="matrix(2.165152e-2,0,0,1.485743e-2,43.0076,42.68539)"
         id="g5022"
         style="display:inline">
        <rect
           style="opacity:0.40206185;fill:url(#linearGradient3709);fill-opacity:1;fill-rule:nonzero;stroke:none;stroke-width:1;stroke-linecap:round;stroke-linejoin:miter;marker:none;marker-start:none;marker-mid:none;marker-end:none;stroke-miterlimit:4;stroke-dasharray:none;stroke-dashoffset:0;stroke-opacity:1;visibility:visible;display:inline;overflow:visible"
           id="rect4173"
           width="1339.6335"
           height="478.35718"
           x="-1559.2523"
           y="-150.69685" />
        <path
           style="opacity:0.40206185;fill:url(#radialGradient3711);fill-opacity:1;fill-rule:nonzero;stroke:none;stroke-width:1;stroke-linecap:round;stroke-linejoin:miter;marker:none;marker-start:none;marker-mid:none;marker-end:none;stroke-miterlimit:4;stroke-dasharray:none;stroke-dashoffset:0;stroke-opacity:1;visibility:visible;display:inline;overflow:visible"
           d="M -219.61876,-150.68038 C -219.61876,-150.68038 -219.61876,327.65041 -219.61876,327.65041 C -76.744594,328.55086 125.78146,220.48075 125.78138,88.454235 C 125.78138,-43.572302 -33.655436,-150.68036 -219.61876,-150.68038 z"
           id="path5058"
           sodipodi:nodetypes="cccc" />
        <path
           sodipodi:nodetypes="cccc"
           id="path5018"
           d="M -1559.2523,-150.68038 C -1559.2523,-150.68038 -1559.2523,327.65041 -1559.2523,327.65041 C -1702.1265,328.55086 -1904.6525,220.48075 -1904.6525,88.454235 C -1904.6525,-43.572302 -1745.2157,-150.68036 -1559.2523,-150.68038 z"
           style="opacity:0.40206185;fill:url(#radialGradient3713);fill-opacity:1;fill-rule:nonzero;stroke:none;stroke-width:1;stroke-linecap:round;stroke-linejoin:miter;marker:none;marker-start:none;marker-mid:none;marker-end:none;stroke-miterlimit:4;stroke-dasharray:none;stroke-dashoffset:0;stroke-opacity:1;visibility:visible;display:inline;overflow:visible" />
      </g>
    </g>
    <g
       id="g4745"
       transform="translate(10.500491,26.471051)">
      <path
         sodipodi:nodetypes="cccccccccccccccc"
         style="fill:#ffffff;fill-opacity:1;stroke:#a8a8a8;stroke-width:0.97899997;stroke-linecap:round;stroke-linejoin:round;stroke-miterlimit:4;stroke-dasharray:none;stroke-opacity:1;display:inline"
         d="M -8.8386583,-24.977136 C -8.8949163,-24.977136 -8.9431463,-24.916791 -8.9431463,-24.854463 L -8.9431463,-23.791302 L -9.4597683,-23.791302 L -9.8568233,-23.791302 C -9.9270293,-23.791302 -9.9822083,-23.729582 -9.9822083,-23.668629 L -9.9822083,-23.423284 L -9.9822083,-20.581372 C -9.9892953,-18.008402 -10.003106,-14.339122 -10.003106,-11.96967 C -5.2967803,-11.993637 -0.58799732,-12.017926 4.1194097,-12.035191 C 3.7022807,-12.035191 3.0070807,-12.10528 3.0170257,-12.975678 C 3.0205677,-16.572708 3.0399867,-20.218799 3.0278027,-23.791302 L -3.0029943,-23.791302 L -3.0029943,-24.854463 C -3.0029943,-24.916791 -3.0512223,-24.977136 -3.1074813,-24.977136 L -8.8386583,-24.977136 z"
         id="rect2196" />
      <path
         inkscape:transform-center-y="-7.7490416"
         inkscape:transform-center-x="-10.522499"
         style="fill:url(#linearGradient4749);fill-opacity:1;stroke:url(#linearGradient4751);stroke-width:0.95339239;stroke-linecap:round;stroke-linejoin:round;stroke-miterlimit:4;stroke-dasharray:none;stroke-opacity:1;display:inline"
         d="M -7.9740723,-21.947037 C -7.3177083,-21.947037 4.5059697,-21.915644 5.0149287,-21.915644 C 5.0149287,-21.300231 4.9902447,-11.957569 4.9608617,-11.957569 C 0.40201868,-11.939815 -6.6985383,-11.971464 -8.0259523,-11.971464 C -8.0259523,-13.132935 -7.9740723,-19.556793 -7.9740723,-21.947037 z"
         id="rect3086"
         sodipodi:nodetypes="ccccc" />
    </g>
    <path
       style="fill:none;fill-rule:evenodd;stroke:#ffffff;stroke-width:1px;stroke-linecap:butt;stroke-linejoin:miter;stroke-opacity:1;opacity:0.34999999999999998"
       d="M 3.5,14 L 3.5,5.5 L 15,5.5"
       id="path2406"
       sodipodi:nodetypes="ccc" />
    <path
       style="fill:url(#radialGradient2553);fill-opacity:1;fill-rule:evenodd;stroke:#666666;stroke-width:1;stroke-linecap:butt;stroke-linejoin:round;marker:none;marker-start:none;marker-mid:none;marker-end:none;stroke-miterlimit:4;stroke-dasharray:none;stroke-dashoffset:0;stroke-opacity:1;visibility:visible;display:inline;overflow:visible"
       d="M 8.6014483,4.5000004 L 15.5,11.332855 L 12.355071,11.436384 C 12.355071,11.436384 13.673912,14.23164 13.673912,14.23164 C 14.07971,15.473978 12.253622,15.939855 11.949275,15.008102 C 11.949275,15.008102 10.731883,12.212843 10.731883,12.212843 L 8.4999997,14.645755 L 8.6014483,4.5000004 z"
       id="path3970"
       sodipodi:nodetypes="cccssccc" />
  </g>
</svg>

<?xml version="1.0" encoding="UTF-8" standalone="no"?>
<!-- Created with Inkscape (http://www.inkscape.org/) -->

<svg
   xmlns:dc="http://purl.org/dc/elements/1.1/"
   xmlns:cc="http://creativecommons.org/ns#"
   xmlns:rdf="http://www.w3.org/1999/02/22-rdf-syntax-ns#"
   xmlns:svg="http://www.w3.org/2000/svg"
   xmlns="http://www.w3.org/2000/svg"
   xmlns:xlink="http://www.w3.org/1999/xlink"
   xmlns:inkscape="http://www.inkscape.org/namespaces/inkscape"
   version="1.1"
   width="16"
   height="16"
   id="svg2555">
  <defs
     id="defs2557">
    <radialGradient
       cx="605.71429"
       cy="486.64789"
       r="117.14286"
       fx="605.71429"
       fy="486.64789"
       id="radialGradient3713"
       xlink:href="#linearGradient5060"
       gradientUnits="userSpaceOnUse"
       gradientTransform="matrix(-2.774389,0,0,1.969706,112.7623,-872.8854)" />
    <linearGradient
       id="linearGradient5060">
      <stop
         id="stop5062"
         style="stop-color:#000000;stop-opacity:1"
         offset="0" />
      <stop
         id="stop5064"
         style="stop-color:#000000;stop-opacity:0"
         offset="1" />
    </linearGradient>
    <radialGradient
       cx="605.71429"
       cy="486.64789"
       r="117.14286"
       fx="605.71429"
       fy="486.64789"
       id="radialGradient3711"
       xlink:href="#linearGradient5060"
       gradientUnits="userSpaceOnUse"
       gradientTransform="matrix(2.774389,0,0,1.969706,-1891.633,-872.8854)" />
    <linearGradient
       id="linearGradient5048">
      <stop
         id="stop5050"
         style="stop-color:#000000;stop-opacity:0"
         offset="0" />
      <stop
         id="stop5056"
         style="stop-color:#000000;stop-opacity:1"
         offset="0.5" />
      <stop
         id="stop5052"
         style="stop-color:#000000;stop-opacity:0"
         offset="1" />
    </linearGradient>
    <linearGradient
       x1="302.85715"
       y1="366.64789"
       x2="302.85715"
       y2="609.50507"
       id="linearGradient3709"
       xlink:href="#linearGradient5048"
       gradientUnits="userSpaceOnUse"
       gradientTransform="matrix(2.774389,0,0,1.969706,-1892.179,-872.8854)" />
    <linearGradient
       id="linearGradient10897">
      <stop
         id="stop10899"
         style="stop-color:#7aa8c6;stop-opacity:1"
         offset="0" />
      <stop
         id="stop10901"
         style="stop-color:#40759c;stop-opacity:1"
         offset="1" />
    </linearGradient>
    <linearGradient
       x1="3.5136399"
       y1="4"
       x2="3.5136399"
       y2="15.035971"
       id="linearGradient4751"
       xlink:href="#linearGradient10897"
       gradientUnits="userSpaceOnUse"
       gradientTransform="matrix(1.0083043,0,0,1.0006232,-10.500284,-26.477671)" />
    <linearGradient
       id="linearGradient10889">
      <stop
         id="stop10891"
         style="stop-color:#b0cbdd;stop-opacity:1"
         offset="0" />
      <stop
         id="stop10893"
         style="stop-color:#4d89b6;stop-opacity:1"
         offset="1" />
    </linearGradient>
    <linearGradient
       x1="126.69791"
       y1="58.583481"
       x2="169.22964"
       y2="238.3999"
       id="linearGradient4749"
       xlink:href="#linearGradient10889"
       gradientUnits="userSpaceOnUse"
       gradientTransform="matrix(0.05489342,0.01385132,0.00257263,0.05248166,-11.212261,-26.738461)" />
    <linearGradient
       id="linearGradient4845">
      <stop
         id="stop4847"
         style="stop-color:#ffffff;stop-opacity:1"
         offset="0" />
      <stop
         id="stop4849"
         style="stop-color:#b6b6b6;stop-opacity:1"
         offset="1" />
    </linearGradient>
    <radialGradient
       cx="17.81411"
       cy="24.149399"
       r="9.125"
       fx="17.81411"
       fy="24.149399"
       id="radialGradient2553"
       xlink:href="#linearGradient4845"
       gradientUnits="userSpaceOnUse"
       gradientTransform="matrix(-1.0729189,0,1.1916354e-8,1.0495351,28.171072,-19.900862)" />
  </defs>
  <metadata
     id="metadata2560">
    <rdf:RDF>
      <cc:Work
         rdf:about="">
        <dc:format>image/svg+xml</dc:format>
        <dc:type
           rdf:resource="http://purl.org/dc/dcmitype/StillImage" />
      </cc:Work>
    </rdf:RDF>
  </metadata>
  <g
     id="layer1">
    <g
       transform="matrix(0.3639508,0,0,0.3445682,-0.6438199,-0.3854516)"
       id="layer6">
      <g
         transform="matrix(0.02165152,0,0,0.01485743,43.0076,42.68539)"
         id="g5022"
         style="display:inline">
        <rect
           width="1339.6335"
           height="478.35718"
           x="-1559.2523"
           y="-150.69685"
           id="rect4173"
           style="opacity:0.40206185;fill:url(#linearGradient3709);fill-opacity:1;fill-rule:nonzero;stroke:none;stroke-width:1;marker:none;visibility:visible;display:inline;overflow:visible" />
        <path
           d="m -219.61876,-150.68038 c 0,0 0,478.33079 0,478.33079 142.874166,0.90045 345.40022,-107.16966 345.40014,-239.196175 0,-132.026537 -159.436816,-239.134595 -345.40014,-239.134615 z"
           inkscape:connector-curvature="0"
           id="path5058"
           style="opacity:0.40206185;fill:url(#radialGradient3711);fill-opacity:1;fill-rule:nonzero;stroke:none;stroke-width:1;marker:none;visibility:visible;display:inline;overflow:visible" />
        <path
           d="m -1559.2523,-150.68038 c 0,0 0,478.33079 0,478.33079 -142.8742,0.90045 -345.4002,-107.16966 -345.4002,-239.196175 0,-132.026537 159.4368,-239.134595 345.4002,-239.134615 z"
           inkscape:connector-curvature="0"
           id="path5018"
           style="opacity:0.40206185;fill:url(#radialGradient3713);fill-opacity:1;fill-rule:nonzero;stroke:none;stroke-width:1;marker:none;visibility:visible;display:inline;overflow:visible" />
      </g>
    </g>
    <g
       transform="translate(10.500491,26.471051)"
       id="g4745">
      <path
         d="m -8.8386583,-24.977136 c -0.056258,0 -0.104488,0.06035 -0.104488,0.122673 l 0,1.063161 -0.516622,0 -0.397055,0 c -0.070206,0 -0.125385,0.06172 -0.125385,0.122673 l 0,0.245345 0,2.841912 c -0.00709,2.57297 -0.020898,6.24225 -0.020898,8.611702 4.7063257,-0.02397 9.41510868,-0.04826 14.1225157,-0.06552 -0.417129,0 -1.112329,-0.07009 -1.102384,-0.940487 0.00354,-3.59703 0.022961,-7.243121 0.010777,-10.815624 l -6.030797,0 0,-1.063161 c 0,-0.06233 -0.048228,-0.122673 -0.104487,-0.122673 l -5.731177,0 z"
         inkscape:connector-curvature="0"
         id="rect2196"
         style="fill:#ffffff;fill-opacity:1;stroke:#a8a8a8;stroke-width:0.97899997;stroke-linecap:round;stroke-linejoin:round;stroke-miterlimit:4;stroke-opacity:1;stroke-dasharray:none;display:inline" />
      <path
         d="m -7.9740723,-21.947037 c 0.656364,0 12.480042,0.03139 12.989001,0.03139 0,0.615413 -0.024684,9.958075 -0.054067,9.958075 -4.55884302,0.01775 -11.6594,-0.01389 -12.986814,-0.01389 0,-1.161471 0.05188,-7.585329 0.05188,-9.975573 z"
         inkscape:connector-curvature="0"
         id="rect3086"
         style="fill:url(#linearGradient4749);fill-opacity:1;stroke:url(#linearGradient4751);stroke-width:0.95339239;stroke-linecap:round;stroke-linejoin:round;stroke-miterlimit:4;stroke-opacity:1;stroke-dasharray:none;display:inline" />
    </g>
    <path
       d="m 3.5,14 0,-8.5 11.5,0"
       inkscape:connector-curvature="0"
       id="path2406"
       style="opacity:0.35;fill:none;stroke:#ffffff;stroke-width:1px;stroke-linecap:butt;stroke-linejoin:miter;stroke-opacity:1" />
    <path
       d="M 8.6014483,4.5000004 15.5,11.332855 12.355071,11.436384 c 0,0 1.318841,2.795256 1.318841,2.795256 0.405798,1.242338 -1.42029,1.708215 -1.724637,0.776462 0,0 -1.217392,-2.795259 -1.217392,-2.795259 L 8.4999997,14.645755 8.6014483,4.5000004 z"
       inkscape:connector-curvature="0"
       id="path3970"
       style="fill:url(#radialGradient2553);fill-opacity:1;fill-rule:evenodd;stroke:#666666;stroke-width:1;stroke-linecap:butt;stroke-linejoin:round;stroke-miterlimit:4;stroke-opacity:1;stroke-dasharray:none;stroke-dashoffset:0;marker:none;visibility:visible;display:inline;overflow:visible" />
  </g>
</svg>
